X: 28
T: UP JUMPED THE DEVIL
C: Buck Ryan
S: "Community Dances Manual 6", EFDSS, Jack Hamilton ed., 1981 p.13
R: reel
Z: 2010 John Chambers <jc:trillian.mit.edu>
M: 4/4
L: 1/8
K: A
"A"[|]\
"A"e2ee f2f2 | "A"a2a2 f2e2 | "A"e2a2 f2e2 | "E7"g6 e2 |\
"E7"egbe gbeg | "E7"begb g2e2 | "E7"gfeg fefc | "A"e6 e2 |
"A"ecec fcfc | "A"acac f2e2 | e2a2 e2a2 | "D"f6 a2 |\
"D"a3b a2f2 | "A"e3f e2ef | "E7"gfed cAB2 | "A"A4- A4 ||
"B"[|]\
"A"E2AA E2AA | "A"F2AA E2E2 | "A"E2AA E2E2 | "E7"B2e2- e2e2 |\
"E7"BBee BeBB | "E7"eBBe e2f2 | "E7"gfeg fedB | "A"ABAF "E7"E2E2 |
"A"E2AA E2AA | "A"F2AA E2E2 | "A"E2AA E2AA | "D"F2F2- F2a2 |\
"D"a3b a2f2 | "A"e3f e2f2 | "E7"gfed cAB2 | "A"A4- A4 |]

%%sep 2 1 500
%%sep 1 1 500

